navit/icons/danger.svg

<?xml version="1.0" encoding="UTF-8" standalone="no"?>
<!-- Created with Inkscape (http://www.inkscape.org/) -->
<svg
   xmlns:dc="http://purl.org/dc/elements/1.1/"
   xmlns:cc="http://creativecommons.org/ns#"
   xmlns:rdf="http://www.w3.org/1999/02/22-rdf-syntax-ns#"
   xmlns:svg="http://www.w3.org/2000/svg"
   xmlns="http://www.w3.org/2000/svg"
   xmlns:sodipodi="http://sodipodi.sourceforge.net/DTD/sodipodi-0.dtd"
   xmlns:inkscape="http://www.inkscape.org/namespaces/inkscape"
   version="1.0"
   width="64"
   height="64"
   id="svg2"
   sodipodi:version="0.32"
   inkscape:version="0.46"
   sodipodi:docname="danger.svg"
   sodipodi:docbase="C:\Dokumente und Einstellungen\Internet\Desktop\Wiki\SVG sonstiges (fertig)"
   inkscape:output_extension="org.inkscape.output.svg.inkscape">
  <metadata
     id="metadata12">
    <rdf:RDF>
      <cc:Work
         rdf:about="">
        <dc:format>image/svg+xml</dc:format>
        <dc:type
           rdf:resource="http://purl.org/dc/dcmitype/StillImage" />
      </cc:Work>
    </rdf:RDF>
  </metadata>
  <sodipodi:namedview
     inkscape:window-height="726"
     inkscape:window-width="1024"
     inkscape:pageshadow="2"
     inkscape:pageopacity="0.0"
     guidetolerance="10.0"
     gridtolerance="10.0"
     objecttolerance="10.0"
     borderopacity="1.0"
     bordercolor="#666666"
     pagecolor="#ffffff"
     id="base"
     inkscape:zoom="0.45689977"
     inkscape:cx="337.5"
     inkscape:cy="516.84554"
     inkscape:window-x="246"
     inkscape:window-y="25"
     inkscape:current-layer="svg2"
     showgrid="false" />
  <defs
     id="defs4">
    <inkscape:perspective
       sodipodi:type="inkscape:persp3d"
       inkscape:vp_x="0 : 292.5 : 1"
       inkscape:vp_y="0 : 1000 : 0"
       inkscape:vp_z="675 : 292.5 : 1"
       inkscape:persp3d-origin="337.5 : 195 : 1"
       id="perspective11" />
  </defs>
  <g
     id="g2384"
     transform="matrix(9.3986055e-2,0,0,9.3986055e-2,0.2797068,4.5090786)">
    <g
       transform="matrix(0.977077,0,0,0.977077,-30.42813,-35.56338)"
       id="g1909">
      <path
         style="fill:#ffffff;fill-rule:evenodd;stroke:#000000;stroke-width:2"
         d="M 71.985614,631.52918 C 60.553114,631.52918 49.989054,625.43 44.272794,615.52918 C 38.556554,605.62833 38.556554,593.43 44.272794,583.52918 L 348.84719,55.99085 C 354.56345,46.09002 365.12751,39.99084 376.56,39.99084 C 387.99251,39.99084 398.55659,46.09002 404.27283,55.99085 L 708.84723,583.52918 C 714.56347,593.43 714.56347,605.62833 708.84723,615.52918 C 703.13097,625.42999 692.56691,631.52918 681.13441,631.52918 L 71.985614,631.52918 z"
         id="path1902" />
      <path
         style="fill:#cc0000;fill-rule:evenodd;stroke:none"
         d="M 71.985614,619.52918 C 64.840294,619.52918 58.237754,615.7172 54.665094,609.52918 C 51.092454,603.34114 51.092454,595.7172 54.665094,589.52918 L 359.23951,61.99086 C 362.81215,55.80282 369.41471,51.99084 376.56,51.99084 C 383.70533,51.99084 390.30787,55.80282 393.88053,61.99086 L 698.45493,589.52918 C 702.02757,595.7172 702.02757,603.34114 698.45493,609.52918 C 694.88227,615.7172 688.27973,619.52918 681.13441,619.52918 L 71.985614,619.52918 z M 141.2677,559.52918 L 376.56,151.99085 L 611.85233,559.52918 L 141.2677,559.52918 z"
         id="path1904" />
    </g>
    <path
       d="M 305.54965,214.69023 C 305.54965,178.32435 369.45035,178.50719 369.45035,214.69023 L 352.68951,405.86854 C 352.68951,420.93416 322.83426,420.97671 322.83426,405.86854 L 305.54965,214.69023 z"
       style="fill:#000000;fill-opacity:1;fill-rule:evenodd;stroke:none;stroke-width:1px;stroke-linecap:butt;stroke-linejoin:miter;stroke-opacity:1"
       id="path37169" />
    <path
       d="M 369.18845,460.60298 C 369.18845,478.10403 355.00104,492.29143 337.5,492.29143 C 319.99896,492.29143 305.81155,478.10403 305.81155,460.60298 C 305.81155,443.10194 319.99896,428.91453 337.5,428.91453 C 355.00104,428.91453 369.18845,443.10194 369.18845,460.60298 z"
       style="fill:#000000;fill-opacity:1;fill-rule:nonzero;stroke:none;stroke-width:1;stroke-linecap:round;stroke-linejoin:round;stroke-miterlimit:4;stroke-dasharray:none;stroke-dashoffset:0;stroke-opacity:1"
       id="path37167" />
  </g>
</svg>

<?xml version="1.0" encoding="UTF-8" standalone="no"?>
<!-- Created with Inkscape (http://www.inkscape.org/) -->

<svg
   xmlns:dc="http://purl.org/dc/elements/1.1/"
   xmlns:cc="http://creativecommons.org/ns#"
   xmlns:rdf="http://www.w3.org/1999/02/22-rdf-syntax-ns#"
   xmlns:svg="http://www.w3.org/2000/svg"
   xmlns="http://www.w3.org/2000/svg"
   xmlns:sodipodi="http://sodipodi.sourceforge.net/DTD/sodipodi-0.dtd"
   xmlns:inkscape="http://www.inkscape.org/namespaces/inkscape"
   version="1.0"
   width="22"
   height="22"
   id="svg2"
   sodipodi:version="0.32"
   inkscape:version="0.91 r13725"
   sodipodi:docname="danger.svg"
   inkscape:output_extension="org.inkscape.output.svg.inkscape">
  <metadata
     id="metadata12">
    <rdf:RDF>
      <cc:Work
         rdf:about="">
        <dc:format>image/svg+xml</dc:format>
        <dc:type
           rdf:resource="http://purl.org/dc/dcmitype/StillImage" />
        <dc:title></dc:title>
      </cc:Work>
    </rdf:RDF>
  </metadata>
  <sodipodi:namedview
     inkscape:window-height="726"
     inkscape:window-width="1024"
     inkscape:pageshadow="2"
     inkscape:pageopacity="0.0"
     guidetolerance="10.0"
     gridtolerance="10.0"
     objecttolerance="10.0"
     borderopacity="1.0"
     bordercolor="#666666"
     pagecolor="#ffffff"
     id="base"
     inkscape:zoom="1.8275991"
     inkscape:cx="28.114536"
     inkscape:cy="19.909522"
     inkscape:window-x="246"
     inkscape:window-y="25"
     inkscape:current-layer="svg2"
     showgrid="false"
     fit-margin-top="0"
     fit-margin-left="0"
     fit-margin-right="0"
     fit-margin-bottom="0"
     inkscape:window-maximized="0" />
  <defs
     id="defs4">
    <inkscape:perspective
       sodipodi:type="inkscape:persp3d"
       inkscape:vp_x="0 : 292.5 : 1"
       inkscape:vp_y="0 : 1000 : 0"
       inkscape:vp_z="675 : 292.5 : 1"
       inkscape:persp3d-origin="337.5 : 195 : 1"
       id="perspective11" />
  </defs>
  <g
     id="g2384"
     transform="matrix(0.03334995,0,0,0.03334995,-0.25560764,2.5747772)">
    <g
       transform="matrix(0.977077,0,0,0.977077,-30.42813,-35.56338)"
       id="g1909">
      <path
         style="fill:#ffffff;fill-rule:evenodd;stroke:#000000;stroke-width:2"
         d="m 71.985614,631.52918 c -11.4325,0 -21.99656,-6.09918 -27.71282,-16 -5.71624,-9.90085 -5.71624,-22.09918 0,-32 L 348.84719,55.99085 c 5.71626,-9.90083 16.28032,-16.00001 27.71281,-16.00001 11.43251,0 21.99659,6.09918 27.71283,16.00001 l 304.5744,527.53833 c 5.71624,9.90082 5.71624,22.09915 0,32 -5.71626,9.90081 -16.28032,16 -27.71282,16 l -609.148796,0 z"
         id="path1902"
         inkscape:connector-curvature="0" />
      <path
         style="fill:#cc0000;fill-rule:evenodd;stroke:none"
         d="m 71.985614,619.52918 c -7.14532,0 -13.74786,-3.81198 -17.32052,-10 -3.57264,-6.18804 -3.57264,-13.81198 0,-20 L 359.23951,61.99086 c 3.57264,-6.18804 10.1752,-10.00002 17.32049,-10.00002 7.14533,0 13.74787,3.81198 17.32053,10.00002 l 304.5744,527.53832 c 3.57264,6.18802 3.57264,13.81196 0,20 -3.57266,6.18802 -10.1752,10 -17.32052,10 l -609.148796,0 z m 69.282086,-60 235.2923,-407.53833 235.29233,407.53833 -470.58463,0 z"
         id="path1904"
         inkscape:connector-curvature="0" />
    </g>
    <path
       d="m 305.54965,214.69023 c 0,-36.36588 63.9007,-36.18304 63.9007,0 l -16.76084,191.17831 c 0,15.06562 -29.85525,15.10817 -29.85525,0 L 305.54965,214.69023 Z"
       style="fill:#000000;fill-opacity:1;fill-rule:evenodd;stroke:none;stroke-width:1px;stroke-linecap:butt;stroke-linejoin:miter;stroke-opacity:1"
       id="path37169"
       inkscape:connector-curvature="0" />
    <path
       d="m 369.18845,460.60298 c 0,17.50105 -14.18741,31.68845 -31.68845,31.68845 -17.50104,0 -31.68845,-14.1874 -31.68845,-31.68845 0,-17.50104 14.18741,-31.68845 31.68845,-31.68845 17.50104,0 31.68845,14.18741 31.68845,31.68845 z"
       style="fill:#000000;fill-opacity:1;fill-rule:nonzero;stroke:none;stroke-width:1;stroke-linecap:round;stroke-linejoin:round;stroke-miterlimit:4;stroke-dasharray:none;stroke-dashoffset:0;stroke-opacity:1"
       id="path37167"
       inkscape:connector-curvature="0" />
  </g>
</svg>
